X:1
T:Barley Mow, The
M:6/8
L:1/8
R:Country Dance Tune
B:Elias Howe – Musician’s Omnibus Nos. 6 & 7 (Boston, 1880-1882, p. 614)
B:  http://ks4.imslp.net/files/imglnks/usimg/c/c7/IMSLP601433-PMLP562790-ONeill_Rare_Medium_M40_M8_v6.7_text.pdf
Z:AK/Fiddler’s Companion
K:Bb
d|B2F B2c|(d3 d2)e|(fd)B (dc)B|FF2- F2f|
(dc)B e2f|g3-g2 g|(_ag)f (cd)=e|(f3 f2)||
f|c2f c2d|(e3 e2)f|gGG (cd)e|(A3 A2)c|
d2B e2c|f2d (ga)f|b3 a3|(b3 b2)||

